icons/glyphs/glyph-micro-sd-card.svg

<?xml version="1.0" encoding="UTF-8" standalone="no"?><svg height="16" viewBox="0 0 4.2333333 4.2333333" width="16" xmlns="http://www.w3.org/2000/svg"><sodipodi:namedview/><metadata><rdf:RDF><cc:Work><dc:format>image/svg+xml</dc:format><dc:type/><dc:title/></cc:Work></rdf:RDF></metadata><path d="m7.3769531 5.4082031c-.6845571-.0011497-1.5952356.0084648-2.5039062.0527344-2.6175822.1313348-3.1068816.711686-3.1679688 1.2675781-.0794128.7208266.8929314 1.2212431 1.4824219 1.4472656.5620014.2138041 1.4492188.3743962 1.4492188.6523438 0 .2229695-.3347529.2409832-1.296875.2226562-1.4966337-.0244157-2.75195317-.1738281-2.75195318-.1738281l-.58789062 1.6171879s1.4248547.097656 2.9453125.097656c2.1685919 0 3.9544339.086789 4.28125-1.3457032.232131-1.0109957-.6504738-1.4872828-1.7011719-1.7988282-.7086104-.2107502-2-.5023479-2-.7558594 0-.3237618.8670421-.3137081 1.46875-.3320312.6566861-.0183307 3.2011719-.0214844 3.2011719-.0214844l.3242187-.9160156s-.4580206-.0125002-1.1425781-.0136719zm2.0683594.0097657-.3261719.9238281c.2015887.0061228.2918248-.0043032.6308594.0292969.311543.0305385.600004.0773388.853516.1445312l1.572265-.9804688c-.381794-.0549796-.700403-.0798294-.886719-.0859374-.736099-.0183266-1.025182-.0343043-1.8437495-.03125zm3.9999995.3300781-2.308593.9316406c.067196.0336.16878.1109312.220703.1445313.015269.0122078.027703.0201504.042969.0292968l2.667968-.8847656c-.183261-.0763604-.436731-.1718338-.623047-.2207031zm1.292969.4960937-3.154297.7929688c.01527.0244535.028801.0497841.041016.0742187.015269.0366614.029071.0727249.035156.109375.027477.1527194-.040288.2998077-.177734.4433594-.1405.1435578-.359626.2773642-.640625.3964844-.281.1191193-.62687.2205134-1.0117189.296875-.3879031.0763578-1.0353845.1390276-1.484375.1542969l-.7363281 2.0742192c1.6951669-.076362 6.390189-.060837 8.195313-2.3027349.226021-.3573581.265791-.7238185.070312-1.078125-.216859-.4031735-.635805-.716591-1.136719-.9609375zm-.423828 3.4550782v.1523437h.265625v.7402345h.179688v-.7402345h.263672v-.1523437zm.824219 0v .8925782h.166016v-.701172l.177734.701172h.173828l.175781-.701172v.701172h.167969v-.8925782h-.269531l-.160157.6093752-.162109-.6093752z" fill="#d0d0d0" transform="scale(.26458333)"/></svg>

<?xml version="1.0" encoding="UTF-8" standalone="no"?>
<!-- Created with Inkscape (http://www.inkscape.org/) -->

<svg
   xmlns:dc="http://purl.org/dc/elements/1.1/"
   xmlns:cc="http://creativecommons.org/ns#"
   xmlns:rdf="http://www.w3.org/1999/02/22-rdf-syntax-ns#"
   xmlns:svg="http://www.w3.org/2000/svg"
   xmlns="http://www.w3.org/2000/svg"
   xmlns:sodipodi="http://sodipodi.sourceforge.net/DTD/sodipodi-0.dtd"
   xmlns:inkscape="http://www.inkscape.org/namespaces/inkscape"
   width="16"
   height="16"
   viewBox="0 0 4.2333333 4.2333333"
   version="1.1"
   id="svg8"
   inkscape:version="0.92+devel (4546dc857e, 2017-07-25, custom)"
   sodipodi:docname="glyph-micro-sd-card.svg">
  <defs
     id="defs2" />
  <sodipodi:namedview
     id="base"
     pagecolor="#002466"
     bordercolor="#ffffff"
     borderopacity="0.38039216"
     inkscape:pageopacity="1"
     inkscape:pageshadow="2"
     inkscape:zoom="54.75"
     inkscape:cx="8"
     inkscape:cy="8"
     inkscape:document-units="px"
     inkscape:current-layer="svg8"
     inkscape:document-rotation="0"
     showgrid="false"
     inkscape:showpageshadow="false"
     borderlayer="true"
     inkscape:window-width="1920"
     inkscape:window-height="1051"
     inkscape:window-x="0"
     inkscape:window-y="0"
     inkscape:window-maximized="1"
     units="px" />
  <metadata
     id="metadata5">
    <rdf:RDF>
      <cc:Work
         rdf:about="">
        <dc:format>image/svg+xml</dc:format>
        <dc:type
           rdf:resource="http://purl.org/dc/dcmitype/StillImage" />
        <dc:title />
      </cc:Work>
    </rdf:RDF>
  </metadata>
  <path
     style="fill:#d0d0d0;fill-rule:nonzero;stroke:none;stroke-width:0.01772538"
     d="M 7.3769531 5.4082031 C 6.692396 5.4070534 5.7817175 5.4166679 4.8730469 5.4609375 C 2.2554647 5.5922723 1.7661653 6.1726235 1.7050781 6.7285156 C 1.6256653 7.4493422 2.5980095 7.9497587 3.1875 8.1757812 C 3.7495014 8.3895853 4.6367188 8.5501774 4.6367188 8.828125 C 4.6367188 9.0510945 4.3019659 9.0691082 3.3398438 9.0507812 C 1.8432101 9.0263655 0.58789063 8.8769531 0.58789062 8.8769531 L 0 10.494141 C 0 10.494141 1.4248547 10.591797 2.9453125 10.591797 C 5.1139044 10.591797 6.8997464 10.678586 7.2265625 9.2460938 C 7.4586935 8.2350981 6.5760887 7.758811 5.5253906 7.4472656 C 4.8167802 7.2365154 3.5253906 6.9449177 3.5253906 6.6914062 C 3.5253906 6.3676444 4.3924327 6.3776981 4.9941406 6.359375 C 5.6508267 6.3410443 8.1953125 6.3378906 8.1953125 6.3378906 L 8.5195312 5.421875 C 8.5195312 5.421875 8.0615106 5.4093748 7.3769531 5.4082031 z M 9.4453125 5.4179688 L 9.1191406 6.3417969 C 9.3207293 6.3479197 9.4109654 6.3374937 9.75 6.3710938 C 10.061543 6.4016323 10.350004 6.4484326 10.603516 6.515625 L 12.175781 5.5351562 C 11.793987 5.4801766 11.475378 5.4553268 11.289062 5.4492188 C 10.552963 5.4308922 10.26388 5.4149145 9.4453125 5.4179688 z M 13.445312 5.7480469 L 11.136719 6.6796875 C 11.203915 6.7132875 11.305499 6.7906187 11.357422 6.8242188 C 11.372691 6.8364266 11.385125 6.8443692 11.400391 6.8535156 L 14.068359 5.96875 C 13.885098 5.8923896 13.631628 5.7969162 13.445312 5.7480469 z M 14.738281 6.2441406 L 11.583984 7.0371094 C 11.599254 7.0615629 11.612785 7.0868935 11.625 7.1113281 C 11.640269 7.1479895 11.654071 7.184053 11.660156 7.2207031 C 11.687633 7.3734225 11.619868 7.5205108 11.482422 7.6640625 C 11.341922 7.8076203 11.122796 7.9414267 10.841797 8.0605469 C 10.560797 8.1796662 10.214927 8.2810603 9.8300781 8.3574219 C 9.442175 8.4337797 8.7946936 8.4964495 8.3457031 8.5117188 L 7.609375 10.585938 C 9.3045419 10.509576 13.999564 10.525101 15.804688 8.2832031 C 16.030709 7.925845 16.070479 7.5593846 15.875 7.2050781 C 15.658141 6.8019046 15.239195 6.4884871 14.738281 6.2441406 z M 14.314453 9.6992188 L 14.314453 9.8515625 L 14.580078 9.8515625 L 14.580078 10.591797 L 14.759766 10.591797 L 14.759766 9.8515625 L 15.023438 9.8515625 L 15.023438 9.6992188 L 14.314453 9.6992188 z M 15.138672 9.6992188 L 15.138672 10.591797 L 15.304688 10.591797 L 15.304688 9.890625 L 15.482422 10.591797 L 15.65625 10.591797 L 15.832031 9.890625 L 15.832031 10.591797 L 16 10.591797 L 16 9.6992188 L 15.730469 9.6992188 L 15.570312 10.308594 L 15.408203 9.6992188 L 15.138672 9.6992188 z "
     transform="scale(0.26458333)"
     id="path13557"
     inkscape:label="#" />
</svg>
